svg/fluentui-system-icons/ic_fluent_temperature_20_filled.svg

<svg width="20" height="20" viewBox="0 0 20 20" fill="none" xmlns="http://www.w3.org/2000/svg">
<path d="M10.7476 7.25C10.7476 6.83579 10.4118 6.5 9.99758 6.5C9.58337 6.5 9.24758 6.83579 9.24758 7.25L9.25 12.1454C8.51704 12.4421 8 13.1607 8 14C8 15.1046 8.89543 16 10 16C11.1046 16 12 15.1046 12 14C12 13.1607 11.483 12.4421 10.75 12.1454L10.7476 7.25ZM6.5 5.50002V5.49758C6.5 3.56592 8.06592 2 9.99758 2C11.9292 2 13.4952 3.56592 13.4952 5.49758L13.4958 11.1661C14.1232 11.9395 14.5 12.9264 14.5 14C14.5 16.4853 12.4853 18.5 10 18.5C7.51472 18.5 5.5 16.4853 5.5 14C5.5 12.9264 5.8768 11.9394 6.50433 11.166C6.50353 9.42913 6.49575 7.18627 6.49575 5.50002H6.5ZM8 5.49758C7.9946 7.57863 8.0044 9.65969 8.0044 11.7407L7.8034 11.9567C7.30427 12.493 7 13.2101 7 14C7 15.6569 8.34315 17 10 17C11.6569 17 13 15.6569 13 14C13 13.2102 12.6958 12.4931 12.1967 11.9568L11.9958 11.7409L11.9952 5.49758C11.9952 4.39435 11.1008 3.5 9.99758 3.5C8.89435 3.5 8 4.39435 8 5.49758Z" fill="#212121"/>
</svg>

<svg xmlns="http://www.w3.org/2000/svg" width="20" height="20"><path d="M10.748 7.25a.75.75 0 0 0-1.5 0l.002 4.895a2 2 0 1 0 1.5 0l-.002-4.895ZM6.5 5.5v-.002a3.498 3.498 0 0 1 6.995 0v5.668a4.5 4.5 0 1 1-6.991 0c0-1.737-.008-3.98-.008-5.666H6.5ZM8 5.498c-.005 2.08.004 4.162.004 6.243l-.2.216a3 3 0 1 0 4.393 0l-.201-.216V5.498a1.998 1.998 0 0 0-3.996 0Z"/></svg>
